hermanmiller.svg

<?xml version="1.0" encoding="UTF-8" standalone="no"?>
<!DOCTYPE svg PUBLIC "-//W3C//DTD SVG 1.1//EN" "http://www.w3.org/Graphics/SVG/1.1/DTD/svg11.dtd">
<!-- Created with Vectornator (http://vectornator.io/) -->
<svg stroke-miterlimit="10" style="fill-rule:nonzero;clip-rule:evenodd;stroke-linecap:round;stroke-linejoin:round;" version="1.1" viewBox="0 0 24 24" xml:space="preserve" xmlns="http://www.w3.org/2000/svg" xmlns:xlink="http://www.w3.org/1999/xlink">
<defs/>
<g id="Untitled">
<path d="M18.6865 18.286C18.6865 18.286 15.9446 17.3724 12.0578 17.3724C8.05748 17.3724 5.31453 18.286 5.31453 18.286L5.31453 5.82863L5.54267 5.82863C5.54267 5.82863 6.57193 16.8004 12.0578 16.8004C17.4291 16.8004 18.4573 5.82863 18.4573 5.82863L18.6855 5.82863L18.6855 18.286C18.6855 18.286 18.6865 18.286 18.6865 18.286ZM23.9432 12C23.9432 5.37024 18.5719 0 12.0578 0C5.42913 0 0.0567686 5.3713 0.0567686 12C0.0567686 18.6298 5.42807 24 12.0578 24C18.5719 24 23.9432 18.6298 23.9432 12Z" fill="#ce3b29" fill-rule="nonzero" opacity="1" stroke="none"/>
</g>
</svg>

<svg stroke-miterlimit="10" style="fill-rule:nonzero;clip-rule:evenodd;stroke-linecap:round;stroke-linejoin:round" viewBox="0 0 24 24" xml:space="preserve" xmlns="http://www.w3.org/2000/svg"><path d="M18.686 18.286s-2.741-.914-6.628-.914c-4 0-6.743.914-6.743.914V5.829h.228S6.572 16.8 12.058 16.8c5.371 0 6.4-10.971 6.4-10.971h.228v12.457ZM23.944 12c0-6.63-5.371-12-11.885-12C5.429 0 .057 5.371.057 12c0 6.63 5.371 12 12 12 6.515 0 11.886-5.37 11.886-12Z" fill="#ce3b29"/></svg>
